profiles/DSC_a8273.NEF.pp3
[Exposure]
Auto=false
Compensation=1.05

[Sharpening]
Enabled=true
Method=usm
Radius=0.69999999999999996
Amount=300
Threshold=20;80;2000;1200;
OnlyEdges=true
EdgedetectionRadius=1.8999999999999999
EdgeTolerance=1800
HalocontrolEnabled=false
HalocontrolAmount=85
DeconvRadius=0.75
DeconvAmount=75
DeconvDamping=20
DeconvIterations=30

[Directional Pyramid Denoising]
Enabled=true
Luma=70
Ldetail=0
Chroma=95
Method=RGB
Redchro=0
Bluechro=0
Gamma=1.7
